dist/assets/img/icons/unfilled.svg

<svg width="16" height="14" viewBox="0 0 16 14" fill="none" xmlns="http://www.w3.org/2000/svg">
<path d="M6.24063 4.34805L8 0.661012L9.75937 4.34805C9.89057 4.62301 10.152 4.81292 10.454 4.85274L14.5043 5.38664L11.5414 8.19925C11.3204 8.409 11.2206 8.71629 11.276 9.01585L12.0199 13.0329L8.42931 11.0841C8.16155 10.9388 7.83845 10.9388 7.57069 11.0841L3.98014 13.0329L4.72397 9.01585C4.77944 8.71629 4.6796 8.409 4.45864 8.19925L1.49574 5.38664L5.54599 4.85274C5.84803 4.81292 6.10943 4.62301 6.24063 4.34805Z" stroke="black"/>
</svg>

<svg width="16" height="14" fill="none" xmlns="http://www.w3.org/2000/svg"><path d="M6.24 4.348L8 .661l1.76 3.687a.9.9 0 00.694.505l4.05.534-2.963 2.812a.9.9 0 00-.265.817l.744 4.017-3.59-1.949a.9.9 0 00-.86 0l-3.59 1.949.744-4.017a.9.9 0 00-.265-.817L1.496 5.387l4.05-.534a.9.9 0 00.695-.505z" stroke="#000"/></svg>
